X:1
T:Title
%%score { 1 | 2 }
L:1/8
M:6/8
K:D
V:1 treble nm="Grand Piano"
V:2 bass 
V:1
 z3 z2[Q:1/4=90] D | D2 E F2 [EG] | [FA]2 [Fd] [DFA]2 [B,EG] | [DF]2 [DF] [CG]2 [CE] | %4
[M:5/8] D-D- D3 |[M:1/8] D |[M:3/4] D2 E F2 [EG] | [FA]2 [Fd] [DFA]2 [B,EG] | %8
 [DF]2 [DF] [CG]2 [CE] |[M:5/8] D-D- D3 |[M:1/8] F |[M:3/4] [FA]2 [FA] [GB]2 [GB] | %12
 [FA]4- [FA][FA] | [Fd]2 [Fd] [FA]2 [DF] |[M:5/8] [CE]-[CE]- [CE]3 |[M:1/8] D | %16
[M:3/4] D2 E F2 [EG] | [FA]2 [Fd] [DFA]2 [B,EG] | [DF]2 [DF] [CG]2 [CE] | %19
[M:13/8] D-D- D3 z z z z z z z2 |] %20
V:2
 z3 z2 [D,F,A,] | [D,F,A,]2 [D,G,C] [D,A,D]2 [D,A,] | [D,D]2 [D,A,] D,2 G,, | %3
 [A,,A,]2 [A,,A,] [A,,E,]2 [A,,G,] |[M:5/8] [D,F,]-[D,F,]- [D,F,]3 |[M:1/8] [D,F,A,] | %6
[M:3/4] [D,F,A,]2 [D,G,C] [D,A,D]2 [D,A,] | [D,D]2 [D,A,] D,2 G,, | %8
 [A,,A,]2 [A,,A,] [A,,E,]2 [A,,G,] |[M:5/8] [D,F,]-[D,F,]- [D,F,]3 |[M:1/8] [D,A,D] | %11
[M:3/4] [D,D]2 [D,D] [D,D]2 [D,D] | [D,D]4- [D,D][D,D] | [D,A,]2 [D,A,] [D,D]2 [D,A,] | %14
[M:5/8] [A,,A,]-[A,,A,]- [A,,A,]3 |[M:1/8] [D,F,A,] |[M:3/4] [D,F,A,]2 [D,G,C] [D,A,D]2 [D,A,] | %17
 [D,D]2 [D,A,] D,2 G,, | [A,,A,]2 [A,,A,] [A,,E,]2 [A,,G,] | %19
[M:13/8] [D,F,]-[D,F,]- [D,F,]3 z z z z z z z2 |] %20

